icons/svg/24x24/renew horizontal/outline.svg

<svg xmlns="http://www.w3.org/2000/svg" width="24" height="24" viewBox="0 0 24 24">
  <path fill-rule="evenodd" d="M5.071,13.0712 C5.623,13.0712 6.071,12.6242 6.071,12.0712 L6.071,10.0712 C6.071,8.4172 7.417,7.0712 9.071,7.0712 L15.071,7.0712 L15.071,10.1422 L21.142,6.0712 L15.071,2.0002 L15.071,5.0712 L9.071,5.0712 C6.314,5.0712 4.071,7.3142 4.071,10.0712 L4.071,12.0712 C4.071,12.6242 4.519,13.0712 5.071,13.0712 M20.071,12.0712 L20.071,14.0712 C20.071,16.8282 17.828,19.0712 15.071,19.0712 L9.071,19.0712 L9.071,22.1422 L3,18.0712 L9.071,14.0002 L9.071,17.0712 L15.071,17.0712 C16.725,17.0712 18.071,15.7252 18.071,14.0712 L18.071,12.0712 C18.071,11.5182 18.519,11.0712 19.071,11.0712 C19.623,11.0712 20.071,11.5182 20.071,12.0712"/>
</svg>

<svg width="24" height="24" fill="none" xmlns="http://www.w3.org/2000/svg">
  <path fill-rule="evenodd" clip-rule="evenodd" d="M5.071 13.071a1 1 0 001-1v-2c0-1.654 1.346-3 3-3h6v3.071l6.071-4.07L15.071 2v3.071h-6c-2.757 0-5 2.243-5 5v2a1 1 0 001 1zm15-1v2c0 2.757-2.243 5-5 5h-6v3.071L3 18.072 9.071 14v3.071h6c1.654 0 3-1.346 3-3v-2a1 1 0 112 0z" fill="#000"/>
</svg>
